img/e/ente.io.svg

<svg xmlns="http://www.w3.org/2000/svg" width="1024" height="1024" fill="none">
  <g clip-path="url(#a)">
    <rect width="1024" height="1024" fill="url(#b)" rx="234"/>
    <g filter="url(#c)" opacity=".8">
      <path fill="#fff" d="M512.364 162 226 289.273v190.909C226 656.773 348.182 821.909 512.364 862c164.181-40.091 286.363-205.227 286.363-381.818V289.273zm0 190.909c44.545 0 89.091 35 89.091 79.546v47.727c19.091 0 38.181 19.091 38.181 41.363v111.364c0 19.091-19.091 38.182-41.363 38.182h-175c-19.091 0-38.182-19.091-38.182-41.364V518.364c0-19.091 19.091-38.182 38.182-38.182v-47.727c0-44.546 44.545-79.546 89.091-79.546m0 38.182c-25.455 0-47.728 15.909-47.728 41.364v47.727h95.455v-47.727c0-25.455-22.273-41.364-47.727-41.364" style="fill:#fff;fill-opacity:1"/>
    </g>
    <g filter="url(#d)" opacity=".8">
      <path fill="#fff" d="M512.364 162 226 289.273v190.909C226 656.773 348.182 821.909 512.364 862c164.181-40.091 286.363-205.227 286.363-381.818V289.273zm0 190.909c44.545 0 89.091 35 89.091 79.546v47.727c19.091 0 38.181 19.091 38.181 41.363v111.364c0 19.091-19.091 38.182-41.363 38.182h-175c-19.091 0-38.182-19.091-38.182-41.364V518.364c0-19.091 19.091-38.182 38.182-38.182v-47.727c0-44.546 44.545-79.546 89.091-79.546m0 38.182c-25.455 0-47.728 15.909-47.728 41.364v47.727h95.455v-47.727c0-25.455-22.273-41.364-47.727-41.364" style="fill:#fff;fill-opacity:1"/>
    </g>
    <g filter="url(#e)" opacity=".8">
      <path fill="#fff" d="M512.364 162 226 289.273v190.909C226 656.773 348.182 821.909 512.364 862c164.181-40.091 286.363-205.227 286.363-381.818V289.273zm0 190.909c44.545 0 89.091 35 89.091 79.546v47.727c19.091 0 38.181 19.091 38.181 41.363v111.364c0 19.091-19.091 38.182-41.363 38.182h-175c-19.091 0-38.182-19.091-38.182-41.364V518.364c0-19.091 19.091-38.182 38.182-38.182v-47.727c0-44.546 44.545-79.546 89.091-79.546m0 38.182c-25.455 0-47.728 15.909-47.728 41.364v47.727h95.455v-47.727c0-25.455-22.273-41.364-47.727-41.364" style="fill:#fff;fill-opacity:1"/>
    </g>
  </g>
  <defs>
    <filter id="c" width="931.501" height="1058.77" x="46.613" y="90.245" color-interpolation-filters="sRGB" filterUnits="userSpaceOnUse">
      <feFlood flood-opacity="0" result="BackgroundImageFix"/>
      <feColorMatrix in="SourceAlpha" result="hardAlpha" values="0 0 0 0 0 0 0 0 0 0 0 0 0 0 0 0 0 0 127 0"/>
      <feOffset dy="107.632"/>
      <feGaussianBlur stdDeviation="89.694"/>
      <feColorMatrix values="0 0 0 0 0 0 0 0 0 0 0 0 0 0 0 0 0 0 0.35 0"/>
      <feBlend in2="BackgroundImageFix" result="effect1_dropShadow_26133_116870"/>
      <feBlend in="SourceGraphic" in2="effect1_dropShadow_26133_116870" result="shape"/>
      <feColorMatrix in="SourceAlpha" result="hardAlpha" values="0 0 0 0 0 0 0 0 0 0 0 0 0 0 0 0 0 0 127 0"/>
      <feOffset dy="17.939"/>
      <feGaussianBlur stdDeviation="8.969"/>
      <feComposite in2="hardAlpha" k2="-1" k3="1" operator="arithmetic"/>
      <feColorMatrix values="0 0 0 0 1 0 0 0 0 1 0 0 0 0 1 0 0 0 0.25 0"/>
      <feBlend in2="shape" result="effect2_innerShadow_26133_116870"/>
      <feColorMatrix in="SourceAlpha" result="hardAlpha" values="0 0 0 0 0 0 0 0 0 0 0 0 0 0 0 0 0 0 127 0"/>
      <feOffset dy="-8.969"/>
      <feGaussianBlur stdDeviation="4.485"/>
      <feComposite in2="hardAlpha" k2="-1" k3="1" operator="arithmetic"/>
      <feColorMatrix values="0 0 0 0 0 0 0 0 0 0 0 0 0 0 0 0 0 0 0.25 0"/>
      <feBlend in2="effect2_innerShadow_26133_116870" result="effect3_innerShadow_26133_116870"/>
    </filter>
    <filter id="d" width="931.501" height="1058.77" x="46.613" y="90.245" color-interpolation-filters="sRGB" filterUnits="userSpaceOnUse">
      <feFlood flood-opacity="0" result="BackgroundImageFix"/>
      <feColorMatrix in="SourceAlpha" result="hardAlpha" values="0 0 0 0 0 0 0 0 0 0 0 0 0 0 0 0 0 0 127 0"/>
      <feOffset dy="107.632"/>
      <feGaussianBlur stdDeviation="89.694"/>
      <feColorMatrix values="0 0 0 0 0 0 0 0 0 0 0 0 0 0 0 0 0 0 0.12 0"/>
      <feBlend in2="BackgroundImageFix" result="effect1_dropShadow_26133_116870"/>
      <feBlend in="SourceGraphic" in2="effect1_dropShadow_26133_116870" result="shape"/>
      <feColorMatrix in="SourceAlpha" result="hardAlpha" values="0 0 0 0 0 0 0 0 0 0 0 0 0 0 0 0 0 0 127 0"/>
      <feOffset dy="17.939"/>
      <feGaussianBlur stdDeviation="8.969"/>
      <feComposite in2="hardAlpha" k2="-1" k3="1" operator="arithmetic"/>
      <feColorMatrix values="0 0 0 0 1 0 0 0 0 1 0 0 0 0 1 0 0 0 0.25 0"/>
      <feBlend in2="shape" result="effect2_innerShadow_26133_116870"/>
      <feColorMatrix in="SourceAlpha" result="hardAlpha" values="0 0 0 0 0 0 0 0 0 0 0 0 0 0 0 0 0 0 127 0"/>
      <feOffset dy="-8.969"/>
      <feGaussianBlur stdDeviation="4.485"/>
      <feComposite in2="hardAlpha" k2="-1" k3="1" operator="arithmetic"/>
      <feColorMatrix values="0 0 0 0 0 0 0 0 0 0 0 0 0 0 0 0 0 0 0.25 0"/>
      <feBlend in2="effect2_innerShadow_26133_116870" result="effect3_innerShadow_26133_116870"/>
    </filter>
    <filter id="e" width="572.727" height="726.908" x="226" y="153.031" color-interpolation-filters="sRGB" filterUnits="userSpaceOnUse">
      <feFlood flood-opacity="0" result="BackgroundImageFix"/>
      <feBlend in="SourceGraphic" in2="BackgroundImageFix" result="shape"/>
      <feColorMatrix in="SourceAlpha" result="hardAlpha" values="0 0 0 0 0 0 0 0 0 0 0 0 0 0 0 0 0 0 127 0"/>
      <feOffset dy="17.939"/>
      <feGaussianBlur stdDeviation="8.969"/>
      <feComposite in2="hardAlpha" k2="-1" k3="1" operator="arithmetic"/>
      <feColorMatrix values="0 0 0 0 1 0 0 0 0 1 0 0 0 0 1 0 0 0 0.25 0"/>
      <feBlend in2="shape" result="effect1_innerShadow_26133_116870"/>
      <feColorMatrix in="SourceAlpha" result="hardAlpha" values="0 0 0 0 0 0 0 0 0 0 0 0 0 0 0 0 0 0 127 0"/>
      <feOffset dy="-8.969"/>
      <feGaussianBlur stdDeviation="4.485"/>
      <feComposite in2="hardAlpha" k2="-1" k3="1" operator="arithmetic"/>
      <feColorMatrix values="0 0 0 0 0 0 0 0 0 0 0 0 0 0 0 0 0 0 0.25 0"/>
      <feBlend in2="effect1_innerShadow_26133_116870" result="effect2_innerShadow_26133_116870"/>
    </filter>
    <linearGradient id="b" x1="96.5" x2="985" y1="71" y2="977.5" gradientUnits="userSpaceOnUse">
      <stop stop-color="#C373F2" style="stop-color:#c373f2;stop-color:color(display-p3 .7647 .451 .949);stop-opacity:1"/>
      <stop offset="1" stop-color="#9610D6" style="stop-color:#9610d6;stop-color:color(display-p3 .5882 .0627 .8392);stop-opacity:1"/>
    </linearGradient>
    <clipPath id="a">
      <rect width="1024" height="1024" fill="#fff" rx="234" style="fill:#fff;fill-opacity:1"/>
    </clipPath>
  </defs>
</svg>

<svg width="1024" height="1024" viewBox="0 0 1024 1024" fill="none" xmlns="http://www.w3.org/2000/svg">
<g clip-path="url(#clip0_26133_116870)">
<rect width="1024" height="1024" rx="234" fill="url(#paint0_linear_26133_116870)" style=""/>
<g opacity="0.8" filter="url(#filter0_dii_26133_116870)">
<path d="M512.364 162L226 289.273V480.182C226 656.773 348.182 821.909 512.364 862C676.545 821.909 798.727 656.773 798.727 480.182V289.273L512.364 162ZM512.364 352.909C556.909 352.909 601.455 387.909 601.455 432.455V480.182C620.546 480.182 639.636 499.273 639.636 521.545V632.909C639.636 652 620.545 671.091 598.273 671.091H423.273C404.182 671.091 385.091 652 385.091 629.727V518.364C385.091 499.273 404.182 480.182 423.273 480.182V432.455C423.273 387.909 467.818 352.909 512.364 352.909ZM512.364 391.091C486.909 391.091 464.636 407 464.636 432.455V480.182H560.091V432.455C560.091 407 537.818 391.091 512.364 391.091Z" fill="white" style="fill:white;fill-opacity:1;"/>
</g>
<g opacity="0.8" filter="url(#filter1_dii_26133_116870)">
<path d="M512.364 162L226 289.273V480.182C226 656.773 348.182 821.909 512.364 862C676.545 821.909 798.727 656.773 798.727 480.182V289.273L512.364 162ZM512.364 352.909C556.909 352.909 601.455 387.909 601.455 432.455V480.182C620.546 480.182 639.636 499.273 639.636 521.545V632.909C639.636 652 620.545 671.091 598.273 671.091H423.273C404.182 671.091 385.091 652 385.091 629.727V518.364C385.091 499.273 404.182 480.182 423.273 480.182V432.455C423.273 387.909 467.818 352.909 512.364 352.909ZM512.364 391.091C486.909 391.091 464.636 407 464.636 432.455V480.182H560.091V432.455C560.091 407 537.818 391.091 512.364 391.091Z" fill="white" style="fill:white;fill-opacity:1;"/>
</g>
<g opacity="0.8" filter="url(#filter2_ii_26133_116870)">
<path d="M512.364 162L226 289.273V480.182C226 656.773 348.182 821.909 512.364 862C676.545 821.909 798.727 656.773 798.727 480.182V289.273L512.364 162ZM512.364 352.909C556.909 352.909 601.455 387.909 601.455 432.455V480.182C620.546 480.182 639.636 499.273 639.636 521.545V632.909C639.636 652 620.545 671.091 598.273 671.091H423.273C404.182 671.091 385.091 652 385.091 629.727V518.364C385.091 499.273 404.182 480.182 423.273 480.182V432.455C423.273 387.909 467.818 352.909 512.364 352.909ZM512.364 391.091C486.909 391.091 464.636 407 464.636 432.455V480.182H560.091V432.455C560.091 407 537.818 391.091 512.364 391.091Z" fill="white" style="fill:white;fill-opacity:1;"/>
</g>
</g>
<defs>
<filter id="filter0_dii_26133_116870" x="46.613" y="90.2452" width="931.501" height="1058.77" filterUnits="userSpaceOnUse" color-interpolation-filters="sRGB">
<feFlood flood-opacity="0" result="BackgroundImageFix"/>
<feColorMatrix in="SourceAlpha" type="matrix" values="0 0 0 0 0 0 0 0 0 0 0 0 0 0 0 0 0 0 127 0" result="hardAlpha"/>
<feOffset dy="107.632"/>
<feGaussianBlur stdDeviation="89.6935"/>
<feColorMatrix type="matrix" values="0 0 0 0 0 0 0 0 0 0 0 0 0 0 0 0 0 0 0.35 0"/>
<feBlend mode="normal" in2="BackgroundImageFix" result="effect1_dropShadow_26133_116870"/>
<feBlend mode="normal" in="SourceGraphic" in2="effect1_dropShadow_26133_116870" result="shape"/>
<feColorMatrix in="SourceAlpha" type="matrix" values="0 0 0 0 0 0 0 0 0 0 0 0 0 0 0 0 0 0 127 0" result="hardAlpha"/>
<feOffset dy="17.9387"/>
<feGaussianBlur stdDeviation="8.96935"/>
<feComposite in2="hardAlpha" operator="arithmetic" k2="-1" k3="1"/>
<feColorMatrix type="matrix" values="0 0 0 0 1 0 0 0 0 1 0 0 0 0 1 0 0 0 0.25 0"/>
<feBlend mode="normal" in2="shape" result="effect2_innerShadow_26133_116870"/>
<feColorMatrix in="SourceAlpha" type="matrix" values="0 0 0 0 0 0 0 0 0 0 0 0 0 0 0 0 0 0 127 0" result="hardAlpha"/>
<feOffset dy="-8.96935"/>
<feGaussianBlur stdDeviation="4.48467"/>
<feComposite in2="hardAlpha" operator="arithmetic" k2="-1" k3="1"/>
<feColorMatrix type="matrix" values="0 0 0 0 0 0 0 0 0 0 0 0 0 0 0 0 0 0 0.25 0"/>
<feBlend mode="normal" in2="effect2_innerShadow_26133_116870" result="effect3_innerShadow_26133_116870"/>
</filter>
<filter id="filter1_dii_26133_116870" x="46.613" y="90.2452" width="931.501" height="1058.77" filterUnits="userSpaceOnUse" color-interpolation-filters="sRGB">
<feFlood flood-opacity="0" result="BackgroundImageFix"/>
<feColorMatrix in="SourceAlpha" type="matrix" values="0 0 0 0 0 0 0 0 0 0 0 0 0 0 0 0 0 0 127 0" result="hardAlpha"/>
<feOffset dy="107.632"/>
<feGaussianBlur stdDeviation="89.6935"/>
<feColorMatrix type="matrix" values="0 0 0 0 0 0 0 0 0 0 0 0 0 0 0 0 0 0 0.12 0"/>
<feBlend mode="normal" in2="BackgroundImageFix" result="effect1_dropShadow_26133_116870"/>
<feBlend mode="normal" in="SourceGraphic" in2="effect1_dropShadow_26133_116870" result="shape"/>
<feColorMatrix in="SourceAlpha" type="matrix" values="0 0 0 0 0 0 0 0 0 0 0 0 0 0 0 0 0 0 127 0" result="hardAlpha"/>
<feOffset dy="17.9387"/>
<feGaussianBlur stdDeviation="8.96935"/>
<feComposite in2="hardAlpha" operator="arithmetic" k2="-1" k3="1"/>
<feColorMatrix type="matrix" values="0 0 0 0 1 0 0 0 0 1 0 0 0 0 1 0 0 0 0.25 0"/>
<feBlend mode="normal" in2="shape" result="effect2_innerShadow_26133_116870"/>
<feColorMatrix in="SourceAlpha" type="matrix" values="0 0 0 0 0 0 0 0 0 0 0 0 0 0 0 0 0 0 127 0" result="hardAlpha"/>
<feOffset dy="-8.96935"/>
<feGaussianBlur stdDeviation="4.48467"/>
<feComposite in2="hardAlpha" operator="arithmetic" k2="-1" k3="1"/>
<feColorMatrix type="matrix" values="0 0 0 0 0 0 0 0 0 0 0 0 0 0 0 0 0 0 0.25 0"/>
<feBlend mode="normal" in2="effect2_innerShadow_26133_116870" result="effect3_innerShadow_26133_116870"/>
</filter>
<filter id="filter2_ii_26133_116870" x="226" y="153.031" width="572.727" height="726.908" filterUnits="userSpaceOnUse" color-interpolation-filters="sRGB">
<feFlood flood-opacity="0" result="BackgroundImageFix"/>
<feBlend mode="normal" in="SourceGraphic" in2="BackgroundImageFix" result="shape"/>
<feColorMatrix in="SourceAlpha" type="matrix" values="0 0 0 0 0 0 0 0 0 0 0 0 0 0 0 0 0 0 127 0" result="hardAlpha"/>
<feOffset dy="17.9387"/>
<feGaussianBlur stdDeviation="8.96935"/>
<feComposite in2="hardAlpha" operator="arithmetic" k2="-1" k3="1"/>
<feColorMatrix type="matrix" values="0 0 0 0 1 0 0 0 0 1 0 0 0 0 1 0 0 0 0.25 0"/>
<feBlend mode="normal" in2="shape" result="effect1_innerShadow_26133_116870"/>
<feColorMatrix in="SourceAlpha" type="matrix" values="0 0 0 0 0 0 0 0 0 0 0 0 0 0 0 0 0 0 127 0" result="hardAlpha"/>
<feOffset dy="-8.96935"/>
<feGaussianBlur stdDeviation="4.48467"/>
<feComposite in2="hardAlpha" operator="arithmetic" k2="-1" k3="1"/>
<feColorMatrix type="matrix" values="0 0 0 0 0 0 0 0 0 0 0 0 0 0 0 0 0 0 0.25 0"/>
<feBlend mode="normal" in2="effect1_innerShadow_26133_116870" result="effect2_innerShadow_26133_116870"/>
</filter>
<linearGradient id="paint0_linear_26133_116870" x1="96.5" y1="71" x2="985" y2="977.5" gradientUnits="userSpaceOnUse">
<stop stop-color="#C373F2" style="stop-color:#C373F2;stop-color:color(display-p3 0.7647 0.4510 0.9490);stop-opacity:1;"/>
<stop offset="1" stop-color="#9610D6" style="stop-color:#9610D6;stop-color:color(display-p3 0.5882 0.0627 0.8392);stop-opacity:1;"/>
</linearGradient>
<clipPath id="clip0_26133_116870">
<rect width="1024" height="1024" rx="234" fill="white" style="fill:white;fill-opacity:1;"/>
</clipPath>
</defs>
</svg>
